assets/rider/mono.svg

<svg viewBox="0 0 24 24" xmlns="http://www.w3.org/2000/svg"><path d="m0 0v24h24v-24zm7.031 3.113a4.063 4.063 0 0 1 2.689 1.027 3.23 3.23 0 0 1 .84 2.28 3.16 3.16 0 0 1 -2.16 3.12l2.46 3.6h-2.58l-2.16-3.24h-1.74v3.24h-2.22v-10.02c1.61-.004 3.281.009 4.871-.007zm5.509.007h3.96c3.18 0 5.34 2.16 5.34 5.04 0 2.82-2.16 5.04-5.34 5.04h-3.96zm4.069 1.976c-.607.01-1.235.004-1.849.004v6.06h1.74a2.882 2.882 0 0 0 3.06-3 2.897 2.897 0 0 0 -2.951-3.064zm-12.29.004v2.88h2.281c1.08 0 1.68-.6 1.68-1.44 0-.96-.66-1.44-1.74-1.44zm-2.159 14.4h9v1.5h-9z"/></svg>

<svg xmlns="http://www.w3.org/2000/svg" viewBox="0 0 24 24"><path d="M0 0v24h24V0zm7.031 3.113A4.06 4.06 0 0 1 9.72 4.14a3.23 3.23 0 0 1 .84 2.28A3.16 3.16 0 0 1 8.4 9.54l2.46 3.6H8.28L6.12 9.9H4.38v3.24H2.16V3.12c1.61-.004 3.281.009 4.871-.007m5.509.007h3.96c3.18 0 5.34 2.16 5.34 5.04 0 2.82-2.16 5.04-5.34 5.04h-3.96zm4.069 1.976c-.607.01-1.235.004-1.849.004v6.06h1.74a2.88 2.88 0 0 0 3.06-3 2.897 2.897 0 0 0-2.951-3.064M4.319 5.1v2.88H6.6c1.08 0 1.68-.6 1.68-1.44 0-.96-.66-1.44-1.74-1.44zM2.16 19.5h9V21h-9z"/></svg>
